X: 1495
T: Golden Haired Girl
B: australian traditional tunes wiki
M:6/8
L:1/8
R: Jig
Q: 3/8=100
K:Cmaj
V:1 
GAB|:c2Bd2c | A2GE2G | c2Bd2c | A3c2d |
e2Gc2e | d2cA2B | c3-c3-|1c3 GAB:|2c3 G3||
e3-e2c | d2cc2A | G6-|G3 E2F|G2A B2c|d2dc3 | B3-B3- | B3GAB |
c3B3 |A3-A2A | c3B3 | A3 c2d | eG2c2e | d2cA2B | c3-c3- | c3z3|]
W: There was once a simple maiden, went to Sydney on a trip
W: And her golden hair was laying down her back.
W: Oh Jane, you never looked the same - since you left the village you were shy.
W: Alas and alack, she came back - with a nasty little twinkle in her eye!
% abcbook-tune_id 6342d53a94beda1c00b5de3c


% abcbook-boost 0
% abcbook-tablature 
% abcbook-transpose 
% abcbook-lastupdated 1665324367823
% abcbook-soundfonts 
% abcbook-repeats 1
% NFF Book 2022
% Bush Traditions recording played by Ian Hayden

